icons/desktop/16/svg/avatar-signed-out-16.svg

<svg width="16" height="16" viewBox="0 0 16 16" fill="none" xmlns="http://www.w3.org/2000/svg">
<path d="M7.99902 9C9.01702 9 9.9502 9.07643 10.7832 9.19043C11.419 9.27747 11.9443 9.65972 12.2393 10.1865C12.4132 10.4964 12.3721 10.8967 12.1562 11.1787C11.1982 12.4337 9.697 13.25 8 13.25L7.99902 13.251C6.30203 13.251 4.80077 12.4337 3.84277 11.1797C3.6281 10.8979 3.58714 10.4983 3.75977 10.1885C4.05373 9.66055 4.57996 9.2775 5.21484 9.19043C6.04884 9.07643 6.98103 9 7.99902 9Z" fill="black"/>
<path d="M8 3.75C9.10499 3.75 9.99999 4.64599 10 5.75098C10 7.02898 8.8008 8.02664 7.4668 7.68164C6.79403 7.50757 6.24338 6.95698 6.06934 6.2832C5.72434 4.94822 6.72202 3.75002 8 3.75Z" fill="black"/>
<path fill-rule="evenodd" clip-rule="evenodd" d="M8 0C12.418 0 16 3.582 16 8C16 12.418 12.418 16 8 16C3.582 16 0 12.418 0 8C0 3.582 3.582 0 8 0ZM8 1.5C4.416 1.5 1.5 4.416 1.5 8C1.5 11.584 4.416 14.5 8 14.5C11.584 14.5 14.5 11.584 14.5 8C14.5 4.416 11.584 1.5 8 1.5Z" fill="black"/>
</svg>

<!-- This Source Code Form is subject to the terms of the Mozilla Public
   - License, v. 2.0. If a copy of the MPL was not distributed with this
   - file, You can obtain one at http://mozilla.org/MPL/2.0/. -->
<svg xmlns="http://www.w3.org/2000/svg" width="16" height="16" fill="context-fill" fill-opacity="context-fill-opacity" viewBox="0 0 16 16">
    <path d="M7.999 9c1.018 0 1.951.076 2.784.19.636.087 1.161.47 1.456.997.174.31.133.71-.083.992A5.22 5.22 0 0 1 8 13.25l-.001.001a5.22 5.22 0 0 1-4.156-2.071.92.92 0 0 1-.083-.992 1.97 1.97 0 0 1 1.455-.998C6.049 9.076 6.98 9 7.999 9M8 3.75a2 2 0 0 1 2 2.001c0 1.278-1.2 2.276-2.533 1.93a1.98 1.98 0 0 1-1.398-1.398A2.004 2.004 0 0 1 8 3.75" />
    <path fill-rule="evenodd" d="M8 0a8 8 0 1 1 0 16A8 8 0 0 1 8 0m0 1.5A6.51 6.51 0 0 0 1.5 8c0 3.584 2.916 6.5 6.5 6.5s6.5-2.916 6.5-6.5S11.584 1.5 8 1.5" clip-rule="evenodd" />
</svg>
